X: 24772
T: Mag Long's
R: jig
M: 6/8
K: Gmajor
GBG G2B|AFA DFA|ded cBA~BGB AFD|
~G3 G2B|AFA DFA|ded cBA|GAG G2D|
~G3 G2B|AFA DFA|ded cBA|~B3 AFD|
GAG G2B|AFA DFA|ded cBA|GAG GBd|
|:~g3 gfe|~f3 fed|e2d efg|eag fed|
gdB Bcd|ecA A2g|fed cAF|1 GAG GBd:|2 GAG G2D||

